X:1
T:AL DI, DOLCE BEN MIO
T:Filippo Azzaiolo (1530-1569?)
%%score 1 2 3 4
L:1/8
Q:1/4=110
M:2/4
K:F
V:1 treble nm="Soprano" snm="S."
V:2 treble nm="Alto" snm="A."
V:3 treble-8 nm="Tenor" snm="T."
V:4 bass nm="Basse" snm="B."
V:1
 =B4 | c2 B2 | B2 A2 | B2 B2 |[M:3/4] z A AA BB | A2 A2 z A |[M:2/4] B2 G2 | G2 ^F2 | G2 B2 | %9
w: Al|di', dol|ce ben|mi o,|mo' sa ve' pur che'|i o se|mi po|dea ia|tar, deh!|
 B2 A2 | G2 G2 | ^F2 z d | dd c>B |[M:3/4] A2 z A BA |[M:2/4] G2 ^FA | AA BA | G2 ^F2 | z2 B2 | %18
w: non mia~b|ban do|nar deh!|non miab ban do|nar, put ta mia|bel la, put|ti na mia put|tel la|ca|
 c2 B2 | B2 A2 | B2 B2 | z2 d2 | c2 A2 | B2 G2 | A2 A2 |[M:3/4] z B BB BA | Bd dd dc | BB BB BA | %28
w: ra mia|mo ro|set ta|m'e'|d'or la|tua brac|cet ta|Vor rei es ser con|ti vot rei es ser con|ti e tu fos si con|
[M:2/4] B2 z2 | A2 B2 | B A2 G | G2 ^F2 | z2 A2 | B2 G2 | G2 ^F2 | G2 G2 |: %36
w: mi|e fa|rem la ga|gliar da|fa|cem che'|l'o rae'|tar da|
[M:3/4][Q:1/4=160] ^F2 F2 F2 | ^F3 E F2 | G2 GA BG | A2 A2 z2 | B2 B2 B2 | A3 G A2 | B2 G2 G2 | %43
w: Fa la la|fa la la|fa la la la la|fa la|Fa la la|fa la la|fa la la|
 ^F2 F2 z2 | ^F2 FF FF | ^F3 E F2 | G^F GA BG | A2 A2 z2 | B2 B2 B2 | A3 A B2 | A2 G2 G2 | %51
w: fa la|Fa la la la la|fa la la|fa la la la la la|fa la|Fa la la|fa la la|fa la la|
 ^F2 F2 z A |[M:2/4][Q:1/4=130] B2 G2 | G2 ^F2 |[M:3/4] Gd3/2 d/d cc | BB3/2 B/B AA | %56
w: fa la Ta|ran da|ri tun|da, me na la gam ba'l|pie me na la gam ba'l|
[M:2/4] B2 z B | A2 G2 | G2 ^F2 | G2 z B | A2 G2 | G2 ^F2 | G4 :|[Q:1/4=70] G4 | G4- | G2 G2 | %66
w: pie ch'io|mor per|pas si|on ch'io|mor per|pas si|on.|Per|pas|~ si|
 G4 |] %67
w: on.|
V:2
 G4 | G2 D2 | F2 F2 | F2 F2 |[M:3/4] z F FF FF | F2 F2 z F |[M:2/4] D2 _E2 | D2 D2 | D2 G2 | %9
w: Al|di', dol|ce ben|mi o,|mo' sa ve' pur che'|i o se|mi po|dea ia|tae, deh!|
 G2 F2 | _E2 E2 | D2 z F | FF EE |[M:3/4] F2 z F DD- |[M:2/4] DC DC | FF DD- | DC D2 | z2 F2 | %18
w: non mia~b|ban do|nar, deh!|non mi~ab ban don|nar, put ta mia|* bel la, put|ti na mia put|tel * la|ca|
 F2 E2 | F3 F | F2 F2 | z2 F2 | F2 F2 | D2 E2 | F2 F2 |[M:3/4] z F FF FF | FF FF FF | DF FF FF | %28
w: ra mia|mo ro|set ta|m'e'|d'or la|tua brac|cet ta|Vor rei es ser con|ti vot rei es ser con|ti e tu fos si con|
[M:2/4] F2 z2 | F2 D2 | D F2 D | C2 D2 | z2 ^F2 | G2 _E2 | D2 D2 | D2 D2 |:[M:3/4] D2 D2 D2 | %37
w: mi|e fa|rem la ga|gliar da|fa|cem che'|l'o rae|tar da|Fa la la|
 D3 ^C D2 | D2 D2 D2 | F2 F2 z2 | F2 F2 F2 | F3 F F2 | FE D2 ^C2 | D2 D2 z2 | D2 DD DD | D2 D2 z2 | %46
w: fa la la|fa la la|fa la|Fa la la|fa la la|fa la la la|fa la|fa la la la la|fa la|
 D2 DC DE | F2 F2 z2 | F2 FF FF | F3 F GF | C3 =B, ^C2 | D2 D2 z ^F |[M:2/4] G2 _E2 | D2 D2 | %54
w: fa la la la la|fa la|Fa la la la la|fa la la la|fa la la|fa la Ta|ran da|ri tun|
[M:3/4] GF3/2 F/F FF | DF3/2 F/F FF |[M:2/4] F2 z F | F2 z D | DD DD | D2 z F | F2 z D | DD DD | %62
w: da, me na la gam ba'l|pie me na la gam ba'l|pie ch'io|mor ch'io|mor per pas si|on ch'io|mor ch'io|mor per pas si|
 D4 :| E4 | E4 | E4 | D4 |] %67
w: on.|Per|pas|si|on.|
V:3
 d4 | _e2 B2 | c2 c2 | d2 d2 |[M:3/4] z c cc dd | c2 c2 z c |[M:2/4] B2 c2 | A2 A2 | G2 d2 | %9
w: Al|di', dol|ce ben|mi o,|mo' sa ve' pur che'|i o se|mi po|dea ia|tar, deh!|
 d2 d2 | B2 c2 | A2 z B | BB GG |[M:3/4] A2 z c Bd |[M:2/4] G2 AA | cc BA | G2 A2 | z2 B2 | A2 B2 | %19
w: non mia~b|ban do|nar deh!|non mi~ab ban do|nar, put ta mia|bel la, put|ti na mia put|tel la|ca|ra mia|
 c2 c2 | d2 d2 | z2 B2 | A2 c2 | B2 c2 | c2 c2 |[M:3/4] z d dd cc | dB BB BA | Bd dd cc | %28
w: mo ro|set ta|m'e'|d'or la|tua brac|cet ta|Vor rei es ser con|ti vot rei es ser con|ti e tu fos si con|
[M:2/4] d2 z2 | c2 G2 | B c2 B | G2 A2 | z2 d2 | B2 c2 | A2 A2 | G2 G2 |:[M:3/4] A2 A2 A2 | %37
w: mi|e fa|rem la ga|gliar da|fa|cem che'|l'o rae'|tar da|Fa la la|
 A3 A A2 | BA Bc dB | c2 c2 z2 | d2 d2 d2 | c3 d cA | GF G3 G | A2 A2 z2 | A2 AA AA | A4 A2 | %46
w: fa la la|fa la la la la la|fa la|Fa la la|fa la la la|fa la la la|fa la|Fa la la la la|fa la|
 B4 B2 | c2 c2 z2 | d2 d2 d2 | c3 c ed | cB A2 G2 | A2 A2 z d |[M:2/4] B2 c2 | A2 A2 | %54
w: fa la|fa la|Fa la la|fa la la la|fa la la la|fa la Ta|ran da|ri tun|
[M:3/4] GB3/2 B/B BA | Bd3/2 d/d cc |[M:2/4] d2 z d | c2 B2 | A2 A2 | =B2 z d | c2 B2 | A2 A2 | %62
w: da, me na la gam ba'l|pie me na la gam ba'l|pie ch'io|mor per|pas si|on ch'io|mor per|pas si|
 =B4 :| c4 | c4- | c2 c2 | =B4 |] %67
w: on.|Per|pas|* si|on.|
V:4
 G,4 | C,2 G,2 | F,2 F,2 | B,,2 B,,2 |[M:3/4] z F, F,F, B,,B,, | F,2 F,2 z F, |[M:2/4] G,2 C,2 | %7
w: Al|di', dol|ce ben|mi o,|mo' sa ve' pur che'|i o se|mi po|
 D,2 D,2 | G,,2 G,2 | G,2 D,2 | _E,2 C,2 | D,2 z B,, | B,,B,, C,C, |[M:3/4] F,2 z F, G,F, | %14
w: dea ia|tae, deh!|non mia~b|ban do|nar, deh!|non mi~ab ban don|nar, put ta mia|
[M:2/4] _E,2 D,F, | F,F, F,F, | E,2 D,2 | z2 B,,2 | F,2 G,2 | F,2 F,2 | B,,2 B,,2 | z2 B,,2 | %22
w: bel la, put|ti na mia put|tel la|ca|ra mia|mo ro|set ta|m'e'|
 F,2 F,2 | G,2 C,2 | F,2 F,2 |[M:3/4] z B,, B,,B,, F,F, | B,,B,, B,,B,, F,F, | B,,B, B,B, F,F, | %28
w: d'or la|tua brac|cet ta|Vor re es ser con|ti vot rei es ser con|ti e tu fos si con|
[M:2/4] B,,2 z2 | F,2 G,2 | G, F,2 G, | _E,2 D,2 | z2 D,2 | G,2 C,2 | D,2 D,2 | G,,2 G,,2 |: %36
w: mi|e fa|rem la ga|gliar da|fa|cem che'|l'o rae'|tar da|
[M:3/4] D,2 D,2 D,2 | D,3 ^C, D,2 | G,4 G,2 | F,2 F,2 z2 | B,,2 B,,C, D,E, | F,3 F, F,2 | %42
w: Fa la la|fa la la|fa la|la la|Fa la la la la|fa la la|
 F,2 E,D, E,2 | D,2 D,2 z2 | D,2 D,D, D,D, | D,4 D,2 | G,2 G,2 G,2 | F,2 F,2 z2 | B,,2 B,,2 B,,2 | %49
w: la fa la la|fa la|Fa la la la la|fa la|fa la la|fa la|Fa la la|
 F,3 F, G,2 | F,2 E,3 E, | D,2 D,2 z D, |[M:2/4] G,2 C,2 | D,2 D,2 |[M:3/4] G,B,,3/2 B,,/B,, F,F, | %55
w: fa la la|fa la la|fa la Ta|ran da|ri tun|da, me na la gam ba'l|
 B,,B,3/2 B,/B, F,F, |[M:2/4] B,,2 z B,, | F,2 G,2 | D,2 D,2 | G,,2 z D, | F,2 G,2 | D,2 D,2 | %62
w: pie me na la gam ba'l|pie ch'io|mor per|pas si|on ch'io|mor per|pas si|
 G,,4 :| C,4 | %64
w: on.|Per|
"_Al di’, dolce ben mio,\nmo’ save’ purche’ io\nSe mi podea iatar,\ndeh! Non mi abbandonar\nputta mia bella\ncara mia morosetta\nm’è d’or la tua braccetta\nVorrei esser con ti\ne tu fossi con mi\ne farem ma gagliarda\nfacem che l’ora è tarda\nFa la la, etc.\nTaranda ritunda\nMena la gamba’l pie’\nCh’io mor per passion." C,4- | %65
w: pas|
 C,2 C,2 | G,,4 |] %67
w: * si|on.|

